X: 28836
T: My Sweetheart Jane
R: reel
M: 4/4
K: Gmajor
DG G2 A2 dc|ABcA dBcA|DG G2 A2 de|fdcA dBcA|
DG G2 A2 dc|ABcA dBcA|DG G2 A2 de|fdcA AGBc||
dggf g2 ag|fdde fgaf|dggf g2 ag|fdcA dBcA|
dggf g2 ag|fdde fg a2|a3g fdeg|fdcA AGGF||

